build/assets/img/about-us/smm-element-5.svg

<svg width="90" height="90" viewBox="0 0 90 90" fill="none" xmlns="http://www.w3.org/2000/svg">
<g clip-path="url(#clip0)">
<path d="M63.1138 34.8266V54.2539C63.1138 56.5285 62.2111 58.71 60.6043 60.3185C58.9975 61.9269 56.8182 62.8305 54.5459 62.8305H35.1421C32.8698 62.8305 30.6905 61.9269 29.0837 60.3185C27.4769 58.71 26.5742 56.5285 26.5742 54.2539V34.8266C26.5742 32.5519 27.4769 30.3705 29.0837 28.762C30.6905 27.1536 32.8698 26.25 35.1421 26.25H54.5497C56.8221 26.25 59.0014 27.1536 60.6082 28.762C62.215 30.3705 63.1177 32.5519 63.1177 34.8266H63.1138Z" fill="#007BB6"/>
<path d="M33.0277 39.9482H38.1592V56.4799H33.0277V39.9482ZM35.5935 31.7466C36.1825 31.7466 36.7583 31.9215 37.2479 32.2493C37.7375 32.577 38.119 33.0429 38.344 33.5877C38.569 34.1326 38.6275 34.7321 38.5119 35.3103C38.3964 35.8884 38.1121 36.4193 37.695 36.8356C37.2779 37.2519 36.7468 37.535 36.1689 37.649C35.591 37.763 34.9923 37.7027 34.4486 37.4759C33.9049 37.2491 33.4406 36.8659 33.1146 36.3749C32.7886 35.8838 32.6155 35.3069 32.6172 34.7173C32.6172 34.3265 32.6942 33.9395 32.8439 33.5785C32.9936 33.2175 33.213 32.8896 33.4894 32.6137C33.7659 32.3377 34.0941 32.1191 34.4552 31.9703C34.8162 31.8215 35.203 31.7455 35.5935 31.7466Z" fill="white"/>
<path d="M41.3777 39.9491H46.3038V42.2092H46.3636C46.857 41.3665 47.5692 40.6732 48.4244 40.203C49.2797 39.7327 50.2461 39.503 51.2213 39.5382C56.4125 39.5382 57.3703 42.9625 57.3703 47.4056V56.4801H52.239V48.4329C52.239 46.5153 52.239 44.0583 49.5707 44.0583C46.9024 44.0583 46.5005 46.1472 46.5005 48.2959V56.4801H41.3691L41.3777 39.9491Z" fill="white"/>
<path d="M82.103 44.3744C82.103 65.4338 65.3423 82.4979 44.6765 82.4979C24.0107 82.4979 7.25 65.4338 7.25 44.3744C7.25 23.3151 24.0107 6.25098 44.6765 6.25098C65.3423 6.25098 82.103 23.3151 82.103 44.3744Z" fill="#FFC9E7" fill-opacity="0.3" stroke="#E4829E" stroke-width="0.5"/>
<g filter="url(#filter0_f)">
<path d="M27.7353 20.9934C33.1644 18.5231 33.131 16.0313 32.6923 14.9334C31.3761 13.4512 30.2621 13.9021 28.7438 14.2746C26.7521 14.7633 23.8523 17.4536 21.3404 19.8739C18.8999 22.2255 14.965 27.6315 14.9006 29.8808C14.8439 31.8631 15.909 33.3726 16.4026 31.7258C16.8962 30.0789 21.5437 23.8106 27.7353 20.9934Z" fill="white"/>
</g>
<path d="M29.4663 77.418C46.8389 82.679 79.1036 75.1915 79.2705 37.6217C84.1375 57.7311 65.2782 90.3546 29.4663 77.418Z" fill="#FFCBE8"/>
</g>
<defs>
<filter id="filter0_f" x="13.8984" y="12.9062" width="19.9708" height="20.5219" filterUnits="userSpaceOnUse" color-interpolation-filters="sRGB">
<feFlood flood-opacity="0" result="BackgroundImageFix"/>
<feBlend mode="normal" in="SourceGraphic" in2="BackgroundImageFix" result="shape"/>
<feGaussianBlur stdDeviation="0.5" result="effect1_foregroundBlur"/>
</filter>
<clipPath id="clip0">
<rect width="90" height="90" fill="white"/>
</clipPath>
</defs>
</svg>

<svg width="90" height="90" fill="none" xmlns="http://www.w3.org/2000/svg"><g clip-path="url(#clip0)"><path d="M63.114 34.827v19.427a8.581 8.581 0 01-2.51 6.065 8.564 8.564 0 01-6.058 2.511H35.142a8.564 8.564 0 01-6.058-2.511 8.581 8.581 0 01-2.51-6.065V34.827c0-2.275.903-4.456 2.51-6.065a8.564 8.564 0 016.058-2.512H54.55c2.272 0 4.451.904 6.058 2.512a8.581 8.581 0 012.51 6.065h-.004z" fill="#007BB6"/><path d="M33.028 39.948h5.131V56.48h-5.131V39.948zm2.566-8.201a2.974 2.974 0 012.75 1.84 2.982 2.982 0 01-2.175 4.062 2.974 2.974 0 01-3.054-1.274 2.982 2.982 0 01-.498-1.658 2.973 2.973 0 012.977-2.97zm5.784 8.203h4.926v2.26h.06a5.407 5.407 0 014.857-2.672c5.192 0 6.15 3.425 6.15 7.868v9.074h-5.132v-8.047c0-1.918 0-4.375-2.668-4.375-2.669 0-3.07 2.09-3.07 4.238v8.184h-5.132l.009-16.53z" fill="#fff"/><path d="M82.103 44.374c0 21.06-16.76 38.124-37.426 38.124S7.25 65.434 7.25 44.374c0-21.059 16.76-38.123 37.426-38.123s37.427 17.064 37.427 38.123z" fill="#FFC9E7" fill-opacity=".3" stroke="#E4829E" stroke-width=".5"/><g filter="url(#filter0_f)"><path d="M27.735 20.993c5.43-2.47 5.396-4.962 4.957-6.06-1.316-1.482-2.43-1.03-3.948-.658-1.992.488-4.892 3.179-7.404 5.599-2.44 2.352-6.375 7.758-6.44 10.007-.056 1.982 1.009 3.492 1.503 1.845.493-1.647 5.14-7.915 11.332-10.733z" fill="#fff"/></g><path d="M29.466 77.418c17.373 5.261 49.638-2.227 49.804-39.796 4.868 20.11-13.992 52.733-49.804 39.796z" fill="#FFCBE8"/></g><defs><clipPath id="clip0"><path fill="#fff" d="M0 0h90v90H0z"/></clipPath><filter id="filter0_f" x="13.898" y="12.906" width="19.971" height="20.522" filterUnits="userSpaceOnUse" color-interpolation-filters="sRGB"><feFlood flood-opacity="0" result="BackgroundImageFix"/><feBlend in="SourceGraphic" in2="BackgroundImageFix" result="shape"/><feGaussianBlur stdDeviation=".5" result="effect1_foregroundBlur"/></filter></defs></svg>
